!!!!SEGMENT: pl-sa--554-a-ix-34--007_anonim--rondo.krn
!!!cenid: 18xx:570
!!!COM: Anonim
!!!COM-rismID: pe30004985
!!!CDT:
!!!CNT:
!!!OTL: Rondo
!!!PDT:
!!!AGN: Secular; Rondo
!!!SMS-siglum: PL-SA
!!!SMS-shelfmark: 554/A IX 34
!!!SMS-shelfwork: 007 W
!!!SMS-variant:
!!!SMS-altvar:
!!!NIFC-rismSourceID: 1001069592
!!!NIFC-rismChildID: 1001069599
!!!NIFC-islandoraID: none
!!!URL-pdf-islandora:
!!!URL-scan: https://bc.bdsandomierz.pl/dlibra/publication/1310/edition/1278/content @EN{Scan in the Sandomierz Diocese Digital Library} @PL{Skany w portalu Cyfrowa Biblioteka Diecezjalna w Sandomierzu}
!!!IIIF:
!!!ONB-nifc: Str. 5 (s. 3-5)
!!!AIN: 1 empty
!!!key:
**kern	**kern
*part1	*part1
*staff2	*staff1
*Iempty	*Ipiano
*	*I"Piano
*clefF4	*clefG2
*k[]	*k[]
*C:	*C:
*M2/4	*M2/4
*>[A,A,B,B]	*>[A,A,B,B]
=1	=1
*>A	*>A
*clefG2	*
!	!LO:TX:a:Bi:t=Rondo&colon;:problem='Rondo&colon;' znajduje się po lewej stronie systemu
16c/LL	8.gg\L
16g/	.
16e/	.
16g/JJ	16ee\Jk
*rep	*
16c/LL	4cc\
16g/	.
16e/	.
16g/JJ	.
*Xrep	*
=2	=2
16d/LL	8.ff\L
16g/	.
16f/	.
16g/JJ	16dd\Jk
*rep	*
16d/LL	4b\
16g/	.
16f/	.
16g/JJ	.
*Xrep	*
=3	=3
16c/LL	16cc\LL
.	8qdd/
16g/	32cc\L
.	32b\JJJ
16e/	16cc\LL
16g/JJ	16dd\JJ
*rep	*
16c/LL	16ee\LL
16g/	16ff\
16e/	16gg\
16g/JJ	16ccc\JJ
*Xrep	*
=4	=4
16d/LL	16ccc\LL
16g/	16bb\
16B/	16aa\
16g/JJ	16gg\JJ
16G/LL	16gg\LL
16g/	16ff\
16B/	16ee\
16g/JJ	16dd\JJ
=5	=5
16c/LL	8.gg\L
16g/	.
16e/	.
16g/JJ	16ee\Jk
*rep	*
16c/LL	4cc\
16g/	.
16e/	.
16g/JJ	.
*Xrep	*
=6	=6
16d/LL	8.ff\L
16g/	.
16f/	.
16g/JJ	16dd\Jk
*rep	*
16d/LL	4b\
16g/	.
16f/	.
16g/JJ	.
*Xrep	*
=7	=7
8c/L	16cc\LL
.	16ccc\
8f/	16bb\
.	16aa\JJ
8g/	16gg\LL
.	16ff\
8G/J	16ee\
.	16dd\JJ
=8	=8
16c/LL	16cc\LL
16B/	16b\
16c/	16cc\
16A/JJ	16a\JJ
*clefF4	*
16G\LL	16g/LL
16F\	16f/
16E\	16e/
16D\JJ	16d/JJ
=9	=9
16C\LL	8.g/L
16G\	.
16E\	.
16G\JJ	16e/Jk
*rep	*
16C\LL	4c/
16G\	.
16E\	.
16G\JJ	.
*Xrep	*
=10	=10
16D\LL	8.f/L
16G\	.
16E\	.
16G\JJ	16d/Jk
*rep	*
16D\LL	4B/
16G\	.
16E\	.
16G\JJ	.
*Xrep	*
=11	=11
16C\LL	16c/LL
16G\	32c/L
.	32B/JJJ
16E\	16c/LL
16G\JJ	16d/JJ
16C\LL	16e/LL
16G\	16f/
16E\	16g/
16G\JJ	16cc/JJ
=12	=12
16D\LL	16cc\LL
16G\	16b\
16BB\	16a\
16G\JJ	16g\JJ
16GG\LL	16g/LL
16G\	16f/
16BB\	16e/
16G\JJ	16d/JJ
!!LO:LB:g=original
=13	=13
16C\LL	8.g/L
16G\	.
16E\	.
16G\JJ	16e/Jk
*rep	*
16C\LL	4c/
16G\	.
16E\	.
16G\JJ	.
*Xrep	*
=14	=14
16D\LL	8.f/L
16G\	.
16E\	.
16G\JJ	16d/Jk
*rep	*
16D\LL	4B/
16G\	.
16E\	.
16G\JJ	.
*Xrep	*
=15	=15
8C\L	16c/LL
.	16cc/
8F\J	16b/
.	16a/JJ
!LO:TX:t=P:problem=mixed beam	!
8G\L	16g/LL
.	16f/
8GG/J	16e/
.	16d/JJ
=16	=16
8C/L	4d/
8GG/J	.
4CC/	4c/
=17:|!|:	=17:|!|:
*>B	*>B
16C\LL	8e/L
16G\	.
16E\	32f/LL
.	32e/
16G\JJ	32c/
.	32e/JJJ
*rep	*
16C\LL	8g/L
16G\	.
16E\	8e/J
16G\JJ	.
*Xrep	*
=18	=18
!LO:TX:a:t=P:problem=znak początku repetycji	!LO:TX:a:t=P:problem=znak początku repetycji
!LO:TX:a:t=P:problem=w źródle łuk pomiędzy znakami repetycji	!LO:TX:a:t=P:problem=w źródle łuk pomiędzy znakami repetycji
16BB\LL	8.e/L
16G\	.
16D\	.
16G\JJ	16d/Jk
*rep	*
16BB\LL	16r
16G\	16g/LL
16D\	16g/
16G\JJ	16g/JJ
*Xrep	*
=19	=19
16A\LL	16g/LL
16d\	16f#X/
16c\	16f#/
16d\JJ	16g/JJ
16F#X\LL	16a/LL
16d\	16b/
16A\	16cc/
16d\JJ	16a/JJ
!LO:TX:a:t=P:problem=znak końca repetycji	!LO:TX:a:t=P:problem=znak końca repetycji
=20	=20
!LO:TX:a:t=P:problem=powtórzenie taktów oznaczone znakami repetycji	!LO:TX:a:t=P:problem=powtórzenie taktów oznaczone znakami repetycji
!LO:TX:a:t=P:problem=ze względu na użycie *rep w taktach powtarzanych brak możliwości użycia *rep dla dwu taktowego powtórzenia	!
16BB\LLyy	8.e/Lyy
16G\yy	.
16D\yy	.
16G\JJyy	16d/Jkyy
*rep	*
16BB\LLyy	16ryy
16G\yy	16g/LLyy
16D\yy	16g/yy
16G\JJyy	16g/JJyy
*Xrep	*
=21	=21
16A\LLyy	16g/LLyy
16d\yy	16f#X/yy
16c\yy	16f#/yy
16d\JJyy	16g/JJyy
16F#X\LLyy	16a/LLyy
16d\yy	16b/yy
16A\yy	16cc/yy
16d\JJyy	16a/JJyy
=22	=22
16G\LL	4b\
16d\	.
16B\	.
16d\JJ	.
*rep	*
16G\LL	16r
16d\	16dd\LL
16B\	16dd\
16d\JJ	16dd\JJ
*Xrep	*
=23	=23
.	8qdd#X/
16G\LL	8.ee\L
16e\	.
16c\	.
16e\JJ	16cc\Jk
.	8qcc#X/
!	!LO:TX:a:t=P:problem=w źródle nuta 8.dd nie przejmuje # od nuty 8qdd#X
16G\LL	8.ddny\L
16d\	.
16B\	.
16d\JJ	16b\Jk
=24	=24
.	8qb/
16F#X\LL	8.cc\L
16d\	.
16A\	.
16d\JJ	16a\Jk
.	8qa#X/
16G\LL	8.b\L
16d\	.
16B\	.
16d\JJ	16dd\Jk
=25	=25
.	8qdd#X/
16G\LL	16ee\LL
16e\	16ee\
16c\	16ee\
16e\JJ	16cc\JJ
.	8qcc#X/
!	!LO:TX:a:t=P:problem=w źródle nuty 16dd nie przejmuje # od nuty 8qdd#X
16G\LL	16ddny\LL
16d\	16dd\
16B\	16dd\
16d\JJ	16b\JJ
=26	=26
.	8qb/
16F#X\LL	16cc\LL
16d\	16cc\
16A\	16cc\
16d\JJ	16a\JJ
.	8qa#X/
16G\LL	8.b\L
16d\	.
16B\	.
16d\JJ	16dd\Jk
!!LO:LB:g=original
=27	=27
16D\LL	16dd\LL
16A\	16cc\
16F#X\	16b\
16A\JJ	16a\JJ
*rep	*
16D\LL	16g/LL
16A\	16f#X/
16F#\	16e/
16A\JJ	16d/JJ
*Xrep	*
=28	=28
16D\LL	32g\LLL
.	32f#X\
16B\	32g\
.	32a\JJJ
16G\	32b\LLL
.	32a\
16B\JJ	32b\
.	32cc\JJJ
*rep	*
16D\LL	32dd\LLL
.	32ee\
16B\	32ff\
.	32gg\JJJ
16G\	32aa\LLL
.	32ff\
16B\JJ	32ee\
.	32dd\JJJ
*Xrep	*
=29	=29
16D\LL	16dd\LL
16A\	16cc\
16F#X\	16b\
16A\JJ	16a\JJ
*rep	*
16D\LL	16g\LL
16A\	16f#X\
16F#\	16e\
16A\JJ	16d\JJ
*Xrep	*
=30	=30
8d 8B 8G\	16g/LL
.	8qa/
.	32g/L
.	32f#X/JJJ
8r	16g/LL
.	16a/JJ
8d 8B 8G\	16b/LL
.	32b/L
.	32a/JJJ
8r	16b/LL
.	16cc/JJ
=31	=31
4d 4B 4G\	16dd\LL
.	8qee/
.	32dd\L
.	32cc\JJJ
.	16dd\LL
.	16ee\JJ
4r	16ff\LL
.	16dd\
.	16cc\
.	16b\JJ
*clefG2	*
=32	=32
16c/LL	8.gg\L
16g/	.
16e/	.
16g/JJ	16ee\Jk
*rep	*
16c/LL	4cc\
16g/	.
16e/	.
16g/JJ	.
*Xrep	*
=33	=33
16d/LL	8.ff\L
16g/	.
16f/	.
16g/JJ	16dd\Jk
*rep	*
16d/LL	4b\
16g/	.
16f/	.
16g/JJ	.
*Xrep	*
=34	=34
16c/LL	16cc\LL
.	8qdd/
16g/	32cc\L
.	32b\JJJ
16e/	16cc\LL
16g/JJ	16dd\JJ
*rep	*
16c/LL	16ee\LL
16g/	16ff\
16e/	16gg\
16g/JJ	16ccc\JJ
*Xrep	*
=35	=35
16d/LL	16ccc\LL
16g/	16bb\
16B/	16aa\
16g/JJ	16gg\JJ
16G/LL	16gg\LL
16g/	16ff\
16B/	16ee\
16g/JJ	16dd\JJ
=36	=36
*clefF4	*
16C\LL	8.gg\L
16G\	.
16E\	.
16G\JJ	16ee\Jk
*rep	*
16C\LL	4cc\
16G\	.
16E\	.
16G\JJ	.
*Xrep	*
=37	=37
16D\LL	8.ff\L
16G\	.
16E\	.
16G\JJ	16dd\Jk
*rep	*
16D\LL	4b\
16G\	.
16E\	.
16G\JJ	.
*Xrep	*
=38	=38
8C\L	16cc\LL
.	16ccc\
8F\J	16bb\
.	16aa\JJ
!LO:TX:t=P:problem=mixed beam	!
8G\L	16gg\LL
.	16ff\
8GG/J	16ee\
.	16dd\JJ
=39	=39
8c\L	4ddT>\
8G\J	.
4C/	4cc\
!LO:TX:a:t=P:problem=ozdobna kreska końcowa	!LO:TX:a:t=P:problem=ozdobna kreska końcowa
==:|!	==:|!
*-	*-
!!!system-decoration: {(s1,s2)}
!!!RDF**kern: > = above
!!!RDF**kern: < = below
!!!EED: Wojciech Jakubiak-Danek
!!!EEV: 2020-12-13
!!!ENC: Marta Chmielewska
!!!END: 2020-06-18
!!!YEC: Copyright 2022 Narodowy Instytut Fryderyka Chopina (https://polishscores.org)
!!!YEM: License CC-BY-4.0 (https://creativecommons.org/licenses/by/4.0)
